X: 484
T: Luo meihua
L: 1/8
M: 4/4
K: G
A2A B A G E D/ E/ [I:setbarnb 1]| 
G2>F2G3z | 
g e d e c e d c | 
A2A B A G E D/ E/ | 
G2>F2G3z | 
A2A GA2A B | 
D4d4 | 
G G G A E D C A, | 
D6z2 |]

@@@ Tune index: 9358
